gama.ui.shared/icons_svg/dark/gaml/_container.svg

<svg height="18" viewBox="-669.587 -2834.086 24 18" width="24" xmlns="http://www.w3.org/2000/svg"><path d="m-658.2192-2829.463h-6.9956v10.5023h6.9956zm.87445 0v10.5023h1.31165c.7258 0 1.3117-.5859 1.3117-1.3117v-7.8788c0-.7258-.5859-1.3118-1.3117-1.3118zm-8.74455 0h-1.3117c-.72576 0-1.31164.586-1.31164 1.3118v7.8788c0 .7258.58588 1.3117 1.31164 1.3117h1.3117zm1.7489-.8743v-.4372c0-.7258.5859-1.3117 1.3117-1.3117h2.6234c.7258 0 1.31165.5859 1.31165 1.3117v.4372h3.06055c1.2068 0 2.1862.9793 2.1862 2.1861v7.8788c0 1.2068-.9794 2.1862-2.1862 2.1862h-11.3679c-1.2067 0-2.1861-.9794-2.1861-2.1862v-7.8788c0-1.2068.9794-2.1861 2.1861-2.1861zm4.3723 0v-.4372c0-.2449-.1924-.4373-.4372-.4373h-2.6234c-.24484 0-.4372.1924-.4372.4373v.4372z" fill="#999"/></svg>

<?xml version="1.0" encoding="UTF-8" standalone="no"?>
<!DOCTYPE svg PUBLIC "-//W3C//DTD SVG 1.1//EN" "http://www.w3.org/Graphics/SVG/1.1/DTD/svg11.dtd">
<svg xmlns:dc="http://purl.org/dc/elements/1.1/" xmlns:xl="http://www.w3.org/1999/xlink" version="1.1" xmlns="http://www.w3.org/2000/svg" viewBox="-669.5871 -2834.0862 24 18" width="24" height="18">
  <defs/>
  <g id="SOURCES" stroke-dasharray="none" stroke="none" stroke-opacity="1" fill="none" fill-opacity="1">
    <title>SOURCES</title>
    <g id="SOURCES_New">
      <title>New</title>
      <g id="Group_10472">
        <g id="Graphic_10127"/>
        <g id="Group_10035">
          <title>briefcase</title>
          <g id="Graphic_10036">
            <path d="M -658.2192 -2829.463 L -665.2148 -2829.463 L -665.2148 -2818.9607 L -658.2192 -2818.9607 Z M -657.34475 -2829.463 L -657.34475 -2818.9607 L -656.0331 -2818.9607 C -655.3073 -2818.9607 -654.7214 -2819.5466 -654.7214 -2820.2724 L -654.7214 -2828.1512 C -654.7214 -2828.877 -655.3073 -2829.463 -656.0331 -2829.463 Z M -666.0893 -2829.463 L -667.401 -2829.463 C -668.12676 -2829.463 -668.71264 -2828.877 -668.71264 -2828.1512 L -668.71264 -2820.2724 C -668.71264 -2819.5466 -668.12676 -2818.9607 -667.401 -2818.9607 L -666.0893 -2818.9607 Z M -664.3404 -2830.3373 L -664.3404 -2830.7745 C -664.3404 -2831.5003 -663.7545 -2832.0862 -663.0287 -2832.0862 L -660.4053 -2832.0862 C -659.6795 -2832.0862 -659.09365 -2831.5003 -659.09365 -2830.7745 L -659.09365 -2830.3373 L -656.0331 -2830.3373 C -654.8263 -2830.3373 -653.8469 -2829.358 -653.8469 -2828.1512 L -653.8469 -2820.2724 C -653.8469 -2819.0656 -654.8263 -2818.0862 -656.0331 -2818.0862 L -667.401 -2818.0862 C -668.6077 -2818.0862 -669.5871 -2819.0656 -669.5871 -2820.2724 L -669.5871 -2828.1512 C -669.5871 -2829.358 -668.6077 -2830.3373 -667.401 -2830.3373 Z M -659.9681 -2830.3373 L -659.9681 -2830.7745 C -659.9681 -2831.0194 -660.1605 -2831.2118 -660.4053 -2831.2118 L -663.0287 -2831.2118 C -663.27354 -2831.2118 -663.4659 -2831.0194 -663.4659 -2830.7745 L -663.4659 -2830.3373 Z" fill="#999"/>
          </g>
        </g>
      </g>
    </g>
  </g>
</svg>
